svgs/gcam.svg

<svg width="24" height="24" viewBox="0 0 24 24" fill="none" xmlns="http://www.w3.org/2000/svg">
<path d="M12 16.2C13.7673 16.2 15.2 14.7673 15.2 13C15.2 11.2327 13.7673 9.8 12 9.8C10.2327 9.8 8.79999 11.2327 8.79999 13C8.79999 14.7673 10.2327 16.2 12 16.2Z" fill="black"/>
<path fill-rule="evenodd" clip-rule="evenodd" d="M7.17 5L9 3H15L16.83 5H20C21.1 5 22 5.9 22 7V19C22 20.1 21.1 21 20 21H4C2.9 21 2 20.1 2 19V7C2 5.9 2.9 5 4 5H7.17ZM7 13C7 15.76 9.24 18 12 18C14.76 18 17 15.76 17 13C17 10.24 14.76 8 12 8C9.24 8 7 10.24 7 13ZM19 9C19.5523 9 20 8.55228 20 8C20 7.44772 19.5523 7 19 7C18.4477 7 18 7.44772 18 8C18 8.55228 18.4477 9 19 9Z" fill="black"/>
</svg>

<svg xmlns="http://www.w3.org/2000/svg" width="24" height="24" fill="none" viewBox="0 0 24 24"><path fill="#000" d="M12 16.2a3.2 3.2 0 1 0 0-6.4 3.2 3.2 0 0 0 0 6.4"/><path fill="#000" fill-rule="evenodd" d="M7.17 5 9 3h6l1.83 2H20c1.1 0 2 .9 2 2v12c0 1.1-.9 2-2 2H4c-1.1 0-2-.9-2-2V7c0-1.1.9-2 2-2zM7 13c0 2.76 2.24 5 5 5s5-2.24 5-5-2.24-5-5-5-5 2.24-5 5m12-4a1 1 0 1 0 0-2 1 1 0 0 0 0 2" clip-rule="evenodd"/></svg>
